SVG_Azure_Grouped/Management/Azure Automation Runbook Description.svg

<?xml version="1.0" encoding="UTF-8" standalone="no"?>
<!-- Generated by Microsoft Visio, SVG Export Azure Automation Runbook Description.svg Page-1 -->

<svg
   xmlns:dc="http://purl.org/dc/elements/1.1/"
   xmlns:cc="http://creativecommons.org/ns#"
   xmlns:rdf="http://www.w3.org/1999/02/22-rdf-syntax-ns#"
   xmlns:svg="http://www.w3.org/2000/svg"
   xmlns="http://www.w3.org/2000/svg"
   xmlns:sodipodi="http://sodipodi.sourceforge.net/DTD/sodipodi-0.dtd"
   xmlns:inkscape="http://www.inkscape.org/namespaces/inkscape"
   width="0.78735989in"
   height="0.55124915in"
   viewBox="0 0 56.689997 39.689952"
   xml:space="preserve"
   class="st2"
   version="1.1"
   id="svg19"
   sodipodi:docname="Azure Automation Runbook Description.svg"
   style="font-size:12px;overflow:visible;color-interpolation-filters:sRGB;fill:none;fill-rule:evenodd;stroke-linecap:square;stroke-miterlimit:3"
   inkscape:version="0.92.5 (2060ec1f9f, 2020-04-08)"><metadata
   id="metadata25"><rdf:RDF><cc:Work
       rdf:about=""><dc:format>image/svg+xml</dc:format><dc:type
         rdf:resource="http://purl.org/dc/dcmitype/StillImage" /></cc:Work></rdf:RDF></metadata><defs
   id="defs23" /><sodipodi:namedview
   pagecolor="#ffffff"
   bordercolor="#666666"
   borderopacity="1"
   objecttolerance="10"
   gridtolerance="10"
   guidetolerance="10"
   inkscape:pageopacity="0"
   inkscape:pageshadow="2"
   inkscape:window-width="640"
   inkscape:window-height="480"
   id="namedview21"
   showgrid="false"
   inkscape:zoom="1.523433"
   inkscape:cx="37.795279"
   inkscape:cy="26.463294"
   inkscape:window-x="0"
   inkscape:window-y="0"
   inkscape:window-maximized="0"
   inkscape:current-layer="svg19" />
	<style
   type="text/css"
   id="style2">
	<![CDATA[
		.st1 {fill:#000000;stroke:none;stroke-linecap:butt;stroke-width:38.25}
		.st2 {fill:none;fill-rule:evenodd;font-size:12px;overflow:visible;stroke-linecap:square;stroke-miterlimit:3}
	]]>
	</style>

	<g
   id="g17"
   transform="translate(-38.25,-38.250071)">
		<title
   id="title4">Page-1</title>
		<g
   id="group12906-1"
   transform="translate(38.25,-38.25)">
			<title
   id="title6">Azure Automation Runbook Description.12906</title>
			<g
   id="group12907-2">
				<title
   id="title8">Sheet.12907</title>
				<g
   id="shape12908-3">
					<title
   id="title10">Sheet.12908</title>
					<path
   d="m 0,76.5 h 56.69 v 3.97 H 0 Z m 0,23.81 h 56.69 v 3.97 H 0 Z m 0,-11.9 h 40.49 v 3.96 H 0 Z m 0,23.81 h 40.49 v 3.97 H 0 Z"
   class="st1"
   id="path12"
   inkscape:connector-curvature="0"
   style="fill:#000000;stroke:none;stroke-width:38.25;stroke-linecap:butt" />
				</g>
			</g>
		</g>
	</g>
</svg>

<?xml version="1.0" encoding="UTF-8" standalone="no"?>
<!DOCTYPE svg PUBLIC "-//W3C//DTD SVG 1.1//EN" "http://www.w3.org/Graphics/SVG/1.1/DTD/svg11.dtd">
<!-- Generated by Microsoft Visio, SVG Export Azure Automation Runbook Description.svg Page-1 -->
<svg xmlns="http://www.w3.org/2000/svg" xmlns:xlink="http://www.w3.org/1999/xlink" xmlns:ev="http://www.w3.org/2001/xml-events"
		width="1.8499in" height="1.61368in" viewBox="0 0 133.193 116.185" xml:space="preserve" color-interpolation-filters="sRGB"
		class="st2">
	<style type="text/css">
	<![CDATA[
		.st1 {fill:#000000;stroke:none;stroke-linecap:butt;stroke-width:38.25}
		.st2 {fill:none;fill-rule:evenodd;font-size:12px;overflow:visible;stroke-linecap:square;stroke-miterlimit:3}
	]]>
	</style>

	<g>
		<title>Page-1</title>
		<g id="group12613-1" transform="translate(38.25,-38.25)">
			<title>Azure Automation Runbook Description.12613</title>
			<g id="group12614-2">
				<title>Sheet.12614</title>
				<g id="shape12615-3">
					<title>Sheet.12615</title>
					<path d="M0 76.5 L56.69 76.5 L56.69 80.47 L0 80.47 L0 76.5 ZM0 100.31 L56.69 100.31 L56.69 104.28 L0 104.28 L0
								 100.31 ZM0 88.41 L40.49 88.41 L40.49 92.37 L0 92.37 L0 88.41 ZM0 112.22 L40.49 112.22 L40.49 116.19
								 L0 116.19 L0 112.22 Z" class="st1"/>
				</g>
			</g>
		</g>
	</g>
</svg>
